X:1
T:Title
%%score { ( 1 3 ) | ( 2 4 ) }
L:1/8
Q:1/4=108
M:4/4
K:A
V:1 treble nm="Grand Piano"
V:3 treble 
V:2 bass 
V:4 bass 
V:1
 A3 E C2 D2 | z4 A4 | [EGB]3 [EGB] [^DFAB]2 [DFAB]2 | [EGB]2 [EAc]2 [EGB]4 | %4
w: Arthur~J.~Jamouneau * * *||||
 [EAc]3 [CEc] [Ee]2 .[DGc]2 | [CA]2 [DFB]2 [CEA]2 [B,DG]2 | [A,CA]3 [C=GA] [FB]2 [EAc]2 | %7
w: |||
 [DFd]2 .[DGc]2 [CA]4 | c3 B A2 GF | ^E2 F2 C4 | F3 ^E F2 G2 | A2 [FB]2 [^Ec]4 | %12
w: |||||
 [Fc]3 [EF] [DFd]2 [FB]2 | G2 AB c4 | e3 [EAc] [DAd]2 [^DA]2 | [Ac]2 z2 z4 |] %16
w: ||||
V:2
 A,3 E, C,2 D,2 | E,2 [E,B,D]2 C2 C2 | E,3 E, B,,2 B,,2 | E,2 A,2 E,4 | %4
 A,3 A, [G,B,]2 z[K:treble] B | F,2 D,2 E,2 ^E,2 | F,3 E, D,2 C,2 | %7
 B,,2 z[K:treble] B[K:bass] A,,4 | C3 B, A,2 G,F, | ^E,2 F,2 C,4 | %10
 [A,C]3 [G,B,C] [F,A,C]2 [^E,G,C]2 | [F,C]2 [D,F,]2 [C,G,]4 | [F,^A,E]3 [F,A,] [B,,B,]2 [D,B,]2 | %13
 [E,DE]2 [DE]-[G,DE][K:treble] [A,CE]4 | [A,CA]3[K:bass] =G, F,2 z[K:treble] B | E,2 z D A,,4 |] %16
V:3
 x8 | E2 FG z2 E2 | x8 | x8 | x8 | x8 | x8 | x8 | x8 | x8 | x8 | x8 | x8 | x8 | x8 | %15
 E2- [EGB]2 [CA]4 |] %16
V:4
 x8 | z4 A,4 | x8 | x8 | z4 z2 E,2[K:treble] | x8 | x8 | z2 E,2[K:treble][K:bass] z4 | x8 | x8 | %10
 x8 | x8 | x8 | z2 .F,2[K:treble] z4 | z4[K:bass] z2 ^E,2[K:treble] | z2 E,2 z4 |] %16

